src/scalable/places/folder-blender.svg

<svg xmlns="http://www.w3.org/2000/svg" xmlns:xlink="http://www.w3.org/1999/xlink" width="64" height="64"><defs><linearGradient id="a"><stop offset="0"/><stop offset="1" stop-opacity="0"/></linearGradient><linearGradient xlink:href="#a" id="b" x1="31" x2="31" y1="1005.4" y2="1003.4" gradientTransform="matrix(.92593 0 0 1 2.37 -988.4)" gradientUnits="userSpaceOnUse"/></defs><path d="M13 8c-1.108 0-2 .892-2 2H9c-.99 0-2 .892-2 2v5H6c-1.108 0-2 .892-2 2v35c0 1.108.892 2 2 2h52c1.108 0 2-.892 2-2V19c0-1.108-.892-2-2-2h-1v-5c0-1.108-1.01-2-2-2H31c0-1.108-.892-2-2-2z" style="fill:#f89406"/><path d="M13 8c-1.108 0-2 .892-2 2H9c-.99 0-2 .892-2 2v5h50v-5c0-1.108-1.01-2-2-2H31c0-1.108-.892-2-2-2z" opacity=".2"/><path d="M11 12c-1.108 0-2 .892-2 2v3h46v-3c0-1.108-.892-2-2-2z" opacity=".06"/><path fill="#fff" d="M11 13c-.554 0-1 .446-1 1v3h44v-3c0-.554-.446-1-1-1z"/><rect width="50" height="2" x="7" y="15" fill="url(#b)" opacity=".1" ry="0"/><rect width="50" height="5" x="7" y="56" fill="url(#d)" opacity=".1" ry="0"/><path fill="#fff" d="M6 17c-1.108 0-2 .892-2 2v1c0-1.108.892-2 2-2h52c1.108 0 2 .892 2 2v-1c0-1.108-.892-2-2-2zm7-9c-1.108 0-2 .892-2 2H9c-.99 0-2 .892-2 2v1c0-1.108 1.01-2 2-2h2c0-1.108.892-2 2-2h16c1.108 0 2 .892 2 2h24c.99 0 2 .892 2 2v-1c0-1.108-1.01-2-2-2H31c0-1.108-.892-2-2-2z" opacity=".15"/><path d="M6 56c-1.108 0-2-.892-2-2v-1c0 1.108.892 2 2 2h52c1.108 0 2-.892 2-2v1c0 1.108-.892 2-2 2z" opacity=".15"/><path d="M31.625 26a1.5 1.5 0 0 0-1.5 1.5 1.5 1.5 0 0 0 .475 1h-.1L34 32H22.5a1.5 1.5 0 0 0-1.5 1.5 1.5 1.5 0 0 0 1.5 1.5H28l-6.4 6.4a1.5 1.5 0 0 0-.6 1.2 1.5 1.5 0 0 0 1.5 1.5 1.5 1.5 0 0 0 1.1-.5l3.4-3.4a8 8 0 0 0 8 7.8 8 8 0 0 0 8-8 8 8 0 0 0-3-6.3l-7.3-7.2a1.5 1.5 0 0 0-1.075-.5M35 35a5 5 0 0 1 3 1l.9.9A5 5 0 0 1 40 40a5 5 0 0 1-5 5 5 5 0 0 1-5-5 5 5 0 0 1 5-5m0 3a2 2 0 0 0-2 2 2 2 0 0 0 2 2 2 2 0 0 0 2-2 2 2 0 0 0-2-2" class="ColorScheme-Text" style="fill:#fff"/></svg>

<?xml version="1.0" encoding="UTF-8"?>
<svg xmlns="http://www.w3.org/2000/svg" viewBox="0 0 64 64">
 <defs>
  <linearGradient id="a">
   <stop offset="0"/>
   <stop stop-opacity="0" offset="1"/>
  </linearGradient>
  <linearGradient id="b" x1="31" x2="31" y1="1005.4" y2="1003.4" gradientTransform="matrix(.92593 0 0 1 2.37 -988.4)" gradientUnits="userSpaceOnUse" xlink:href="#a"/>
  <radialGradient id="d" cx="32" cy="1021.9" r="25" gradientTransform="matrix(-1 0 0 -.08 64 137.7)" gradientUnits="userSpaceOnUse" xlink:href="#a"/>
 </defs>
 <path style="fill:#f89406" d="M13 8c-1.108 0-2 .892-2 2H9c-.99 0-2 .892-2 2v5H6c-1.108 0-2 .892-2 2v35c0 1.108.892 2 2 2h52c1.108 0 2-.892 2-2V19c0-1.108-.892-2-2-2h-1v-5c0-1.108-1.01-2-2-2H31c0-1.108-.892-2-2-2z"/>
 <path d="M13 8c-1.108 0-2 .892-2 2H9c-.99 0-2 .892-2 2v5h50v-5c0-1.108-1.01-2-2-2H31c0-1.108-.892-2-2-2z" opacity=".2"/>
 <path d="M11 12c-1.108 0-2 .892-2 2v3h46v-3c0-1.108-.892-2-2-2z" opacity=".06"/>
 <path d="M11 13c-.554 0-1 .446-1 1v3h44v-3c0-.554-.446-1-1-1z" fill="#fff"/>
 <rect x="7" y="15" width="50" height="2" ry="0" fill="url(#b)" opacity=".1"/>
 <rect x="7" y="56" width="50" height="5" ry="0" fill="url(#d)" opacity=".1"/>
 <path d="M6 17c-1.108 0-2 .892-2 2v1c0-1.108.892-2 2-2h52c1.108 0 2 .892 2 2v-1c0-1.108-.892-2-2-2zM13 8c-1.108 0-2 .892-2 2H9c-.99 0-2 .892-2 2v1c0-1.108 1.01-2 2-2h2c0-1.108.892-2 2-2h16c1.108 0 2 .892 2 2h24c.99 0 2 .892 2 2v-1c0-1.108-1.01-2-2-2H31c0-1.108-.892-2-2-2z" fill="#fff" opacity=".15"/>
 <path d="M6 56c-1.108 0-2-.892-2-2v-1c0 1.108.892 2 2 2h52c1.108 0 2-.892 2-2v1c0 1.108-.892 2-2 2z" opacity=".15"/>
 <path style="fill:#ffffff" d="M 31.625 26 A 1.5 1.5 0 0 0 30.125 27.5 A 1.5 1.5 0 0 0 30.6 28.5 L 30.5 28.5 L 34 32 L 22.5 32 A 1.5 1.5 0 0 0 21 33.5 A 1.5 1.5 0 0 0 22.5 35 L 28 35 L 21.6 41.4 A 1.5 1.5 0 0 0 21 42.6 A 1.5 1.5 0 0 0 22.5 44.1 A 1.5 1.5 0 0 0 23.6 43.6 C 23.6 43.6 23.6 43.6 23.6 43.6 L 27 40.2 A 8 8 0 0 0 35 48 A 8 8 0 0 0 43 40 A 8 8 0 0 0 40 33.7 L 32.7 26.5 A 1.5 1.5 0 0 1 32.7 26.5 A 1.5 1.5 0 0 0 31.625 26 z M 35 35 A 5 5 0 0 1 38 36 L 38.9 36.9 L 38.9 36.9 A 5 5 0 0 1 40 40 A 5 5 0 0 1 35 45 A 5 5 0 0 1 30 40 A 5 5 0 0 1 35 35 z M 35 38 A 2 2 0 0 0 33 40 A 2 2 0 0 0 35 42 A 2 2 0 0 0 37 40 A 2 2 0 0 0 35 38 z " class="ColorScheme-Text"/>
</svg>
